assets/components_previews/layout/light/aspect_ratio.svg

<svg xmlns="http://www.w3.org/2000/svg" width="320" height="232" fill="none" viewBox="0 0 320 232"><g filter="url(#a)"><rect width="160" height="90" x="80" y="71" fill="#fff" rx="12"/><path fill="#AA99EC" d="M149.09 121v-7.63c-.504.686-1.358 1.232-2.45 1.428v-2.1c1.036-.126 2.338-.994 2.744-1.778h1.806V121zm7.2.14c-2.66 0-4.158-1.792-4.158-4.956 0-3.318 1.666-5.404 4.284-5.404 1.96 0 3.262 1.092 3.542 2.926h-2.142c-.098-.826-.644-1.274-1.414-1.274-1.33 0-1.988 1.078-2.03 3.388.518-.742 1.358-1.176 2.436-1.176 1.96 0 3.29 1.288 3.29 3.206 0 1.988-1.484 3.29-3.808 3.29m-.154-1.652c.952 0 1.68-.56 1.68-1.624s-.756-1.596-1.708-1.596c-.98 0-1.736.546-1.736 1.568 0 1.05.812 1.652 1.764 1.652m4.772-3.038v-2.31h2.31v2.31zm0 4.55v-2.31h2.31V121zm7.065.14c-2.184 0-3.388-1.274-3.598-3.136h2.142c.098.994.588 1.484 1.526 1.484 1.288 0 1.736-.924 1.778-3.304-.518.63-1.33.98-2.324.98-1.932 0-3.276-1.288-3.276-3.136 0-1.946 1.512-3.248 3.794-3.248 2.688 0 4.186 1.778 4.186 5.04 0 3.318-1.54 5.32-4.228 5.32m.238-5.6c1.036 0 1.568-.63 1.568-1.484 0-.896-.532-1.624-1.568-1.624s-1.61.686-1.61 1.568.588 1.54 1.61 1.54"/><path fill="#EBE4FF" d="M92.235 79A4.235 4.235 0 0 0 88 83.235V93.5a1.5 1.5 0 0 0 3 0v-9.707c0-.99.803-1.793 1.793-1.793h9.707a1.5 1.5 0 0 0 0-3zm135.53 74a4.235 4.235 0 0 0 4.235-4.235V138.5a1.5 1.5 0 0 0-3 0v9.707c0 .99-.803 1.793-1.793 1.793H217.5a1.5 1.5 0 0 0 0 3z"/></g><defs><filter id="a" width="200" height="130" x="60" y="63" color-interpolation-filters="sRGB" filterUnits="userSpaceOnUse"><feFlood flood-opacity="0" result="BackgroundImageFix"/><feColorMatrix in="SourceAlpha" result="hardAlpha" values="0 0 0 0 0 0 0 0 0 0 0 0 0 0 0 0 0 0 127 0"/><feOffset dy="12"/><feGaussianBlur stdDeviation="10"/><feComposite in2="hardAlpha" operator="out"/><feColorMatrix values="0 0 0 0 0 0 0 0 0 0 0 0 0 0 0 0 0 0 0.03 0"/><feBlend in2="BackgroundImageFix" result="effect1_dropShadow_10185_10888"/><feColorMatrix in="SourceAlpha" result="hardAlpha" values="0 0 0 0 0 0 0 0 0 0 0 0 0 0 0 0 0 0 127 0"/><feOffset dy="2"/><feGaussianBlur stdDeviation="3"/><feComposite in2="hardAlpha" operator="out"/><feColorMatrix values="0 0 0 0 0 0 0 0 0 0 0 0 0 0 0 0 0 0 0.05 0"/><feBlend in2="effect1_dropShadow_10185_10888" result="effect2_dropShadow_10185_10888"/><feBlend in="SourceGraphic" in2="effect2_dropShadow_10185_10888" result="shape"/></filter></defs></svg>

<svg width="320" height="232" viewBox="0 0 320 232" fill="none" xmlns="http://www.w3.org/2000/svg">
<g filter="url(#filter0_dd_10185_10888)">
<rect x="80" y="71" width="160" height="90" rx="12" fill="white"/>
<path d="M149.09 121V113.37C148.586 114.056 147.732 114.602 146.64 114.798V112.698C147.676 112.572 148.978 111.704 149.384 110.92H151.19V121H149.09ZM156.29 121.14C153.63 121.14 152.132 119.348 152.132 116.184C152.132 112.866 153.798 110.78 156.416 110.78C158.376 110.78 159.678 111.872 159.958 113.706H157.816C157.718 112.88 157.172 112.432 156.402 112.432C155.072 112.432 154.414 113.51 154.372 115.82C154.89 115.078 155.73 114.644 156.808 114.644C158.768 114.644 160.098 115.932 160.098 117.85C160.098 119.838 158.614 121.14 156.29 121.14ZM156.136 119.488C157.088 119.488 157.816 118.928 157.816 117.864C157.816 116.8 157.06 116.268 156.108 116.268C155.128 116.268 154.372 116.814 154.372 117.836C154.372 118.886 155.184 119.488 156.136 119.488ZM160.908 116.45V114.14H163.218V116.45H160.908ZM160.908 121V118.69H163.218V121H160.908ZM167.973 121.14C165.789 121.14 164.585 119.866 164.375 118.004H166.517C166.615 118.998 167.105 119.488 168.043 119.488C169.331 119.488 169.779 118.564 169.821 116.184C169.303 116.814 168.491 117.164 167.497 117.164C165.565 117.164 164.221 115.876 164.221 114.028C164.221 112.082 165.733 110.78 168.015 110.78C170.703 110.78 172.201 112.558 172.201 115.82C172.201 119.138 170.661 121.14 167.973 121.14ZM168.211 115.54C169.247 115.54 169.779 114.91 169.779 114.056C169.779 113.16 169.247 112.432 168.211 112.432C167.175 112.432 166.601 113.118 166.601 114C166.601 114.882 167.189 115.54 168.211 115.54Z" fill="#AA99EC"/>
<path d="M92.2353 79C89.8962 79 88 80.8962 88 83.2353V93.5C88 94.3284 88.6716 95 89.5 95C90.3284 95 91 94.3284 91 93.5V83.7931C91 82.8028 91.8028 82 92.7931 82L102.5 82C103.328 82 104 81.3284 104 80.5C104 79.6716 103.328 79 102.5 79L92.2353 79Z" fill="#EBE4FF"/>
<path d="M227.765 153C230.104 153 232 151.104 232 148.765L232 138.5C232 137.672 231.328 137 230.5 137C229.672 137 229 137.672 229 138.5L229 148.207C229 149.197 228.197 150 227.207 150L217.5 150C216.672 150 216 150.672 216 151.5C216 152.328 216.672 153 217.5 153L227.765 153Z" fill="#EBE4FF"/>
</g>
<defs>
<filter id="filter0_dd_10185_10888" x="60" y="63" width="200" height="130" filterUnits="userSpaceOnUse" color-interpolation-filters="sRGB">
<feFlood flood-opacity="0" result="BackgroundImageFix"/>
<feColorMatrix in="SourceAlpha" type="matrix" values="0 0 0 0 0 0 0 0 0 0 0 0 0 0 0 0 0 0 127 0" result="hardAlpha"/>
<feOffset dy="12"/>
<feGaussianBlur stdDeviation="10"/>
<feComposite in2="hardAlpha" operator="out"/>
<feColorMatrix type="matrix" values="0 0 0 0 0 0 0 0 0 0 0 0 0 0 0 0 0 0 0.03 0"/>
<feBlend mode="normal" in2="BackgroundImageFix" result="effect1_dropShadow_10185_10888"/>
<feColorMatrix in="SourceAlpha" type="matrix" values="0 0 0 0 0 0 0 0 0 0 0 0 0 0 0 0 0 0 127 0" result="hardAlpha"/>
<feOffset dy="2"/>
<feGaussianBlur stdDeviation="3"/>
<feComposite in2="hardAlpha" operator="out"/>
<feColorMatrix type="matrix" values="0 0 0 0 0 0 0 0 0 0 0 0 0 0 0 0 0 0 0.05 0"/>
<feBlend mode="normal" in2="effect1_dropShadow_10185_10888" result="effect2_dropShadow_10185_10888"/>
<feBlend mode="normal" in="SourceGraphic" in2="effect2_dropShadow_10185_10888" result="shape"/>
</filter>
</defs>
</svg>
